X: 36964
T: Shuffle
R: reel
M: 4/4
K: Amajor
A,2(3AAA GEAB,|A,A (3AAA GEDB,|A,2(3AAA GEAE|CDEC DB,G,B,|
A,2(3AAA GEAB,|A,A (3AAA GEDB,|A,2(3AAA GEAE|CDB,C A,2z2:|
DDDE DCB,D|CA,A,A, CA,CE|A2zG AGED|CDEC DB,CA,|
DDDE DCB,D|CA,A,A, CA,CE|A2zG AGED|1 CEDB, A,2z2:|2 CDED CDB,C||

